public/svg/icon/fldc.svg

<svg xmlns="http://www.w3.org/2000/svg" xmlns:xlink="http://www.w3.org/1999/xlink" width="32" height="32" viewBox="0 0 32 32"><defs><linearGradient id="fldc-c" x1="50%" x2="50%" y1="0%" y2="100%"><stop offset="0%" stop-color="#FFF" stop-opacity=".5"/><stop offset="100%" stop-opacity=".5"/></linearGradient><circle id="fldc-b" cx="16" cy="15" r="15"/><filter id="fldc-a" width="111.7%" height="111.7%" x="-5.8%" y="-4.2%" filterUnits="objectBoundingBox"><feOffset dy=".5" in="SourceAlpha" result="shadowOffsetOuter1"/><feGaussianBlur in="shadowOffsetOuter1" result="shadowBlurOuter1" stdDeviation=".5"/><feComposite in="shadowBlurOuter1" in2="SourceAlpha" operator="out" result="shadowBlurOuter1"/><feColorMatrix in="shadowBlurOuter1" values="0 0 0 0 0 0 0 0 0 0 0 0 0 0 0 0 0 0 0.199473505 0"/></filter><path id="fldc-e" d="M22.2005202,6.1400398 C22.2901299,6.21082527 22.3713424,6.26915775 22.4462957,6.33531431 C22.6443701,6.51014787 22.8429887,6.68453083 23.0351539,6.86641016 C23.1888316,7.01191363 23.3337621,7.16769902 23.4810641,7.32053501 C23.4933879,7.33331572 23.5032624,7.36100726 23.4989861,7.37735183 C23.4081323,7.72529847 23.273193,8.05280417 23.091019,8.35917254 C22.931782,8.62699396 22.7469644,8.87314552 22.533223,9.09385855 C22.2432841,9.39326308 21.9176957,9.64412548 21.5616673,9.84931322 C21.4071732,9.93836856 21.2478584,10.0184938 21.0890491,10.0989467 C20.582142,10.3557898 20.0420735,10.5000644 19.4919361,10.6019824 C19.1168195,10.6714979 18.7383594,10.7221292 18.3605992,10.7741123 C17.8651606,10.8422761 17.3681281,10.8972495 16.8732727,10.9690591 C16.1437993,11.0749096 15.4275826,11.2411408 14.7504366,11.5561525 C14.0044408,11.9031979 13.3833154,12.4097565 12.961314,13.1591485 C12.679889,13.6588661 12.5659817,14.2036029 12.5707246,14.7820529 C12.5797439,15.8892639 12.959098,16.8464243 13.6133071,17.6970789 C14.0134601,18.2173603 14.4694393,18.6786538 14.9489775,19.1152462 C15.2811359,19.4176411 15.6202143,19.7116793 15.9508566,20.0159176 C16.3737521,20.4050329 16.7983193,20.7939024 17.1601403,21.2487236 C17.351217,21.4888944 17.5393001,21.7345954 17.7021915,21.9961493 C17.980001,22.4421224 18.2009734,22.9205798 18.3462539,23.4341431 C18.425367,23.7136392 18.4744288,23.999116 18.4964327,24.2905326 C18.5295164,24.7290502 18.4870247,25.1590064 18.3815535,25.5833506 C18.3385952,25.756095 18.3371568,25.7588396 18.1659848,25.7903817 C17.92503,25.8347455 17.6843473,25.8812804 17.4424595,25.9194997 C17.2654949,25.947396 17.0868975,25.9640683 16.9088444,25.9844683 C16.8465647,25.9916369 16.7838963,25.9950779 16.7213833,25.9997068 C16.7089818,26.000608 16.6964248,25.9991743 16.6839455,25.9988466 C16.685034,25.9854514 16.683168,25.9707864 16.6877554,25.9589069 C16.7424931,25.816107 16.8022847,25.6752734 16.8529016,25.530876 C16.9618327,25.2205751 17.0440559,24.9033103 17.0793167,24.5728143 C17.1422961,23.9816245 17.0416845,23.4245985 16.7760433,22.9009171 C16.5953077,22.5446958 16.3527201,22.2387371 16.0819861,21.954653 C15.7063251,21.5604582 15.2924489,21.2140272 14.8773286,20.8688252 C14.1842822,20.2923824 13.5140561,19.6891902 12.9019889,19.0167282 C12.5321594,18.6104491 12.1905929,18.1801652 11.8895354,17.7147343 C11.5664351,17.2151396 11.2990445,16.6859281 11.1224687,16.1087889 C10.8460976,15.2057007 10.8399552,14.3015883 11.0974324,13.3908398 C11.242674,12.8772355 11.4402429,12.3937806 11.743633,11.9616533 C12.1462351,11.3882418 12.6651161,10.9615627 13.259689,10.6305341 C13.8604821,10.2960236 14.5004625,10.0758022 15.1587924,9.91055413 C15.6892196,9.77742173 16.2257115,9.67656882 16.7672184,9.61090382 C17.3768364,9.5370051 17.9877373,9.47502685 18.5978996,9.40604379 C19.0950099,9.34984143 19.5901763,9.28098126 20.0711918,9.12908743 C20.5079273,8.99120323 20.90532,8.77688056 21.2484416,8.45654352 C21.5390025,8.18532211 21.7551154,7.85912725 21.9102704,7.48500473 C22.0533737,7.14004845 22.1228456,6.77596206 22.1739678,6.40667327 C22.1853585,6.32454082 22.1906068,6.24146621 22.2005202,6.1400398 Z M15.1407111,18.9663919 C15.3587678,18.9232979 15.5670666,18.8863076 15.7735382,18.840551 C16.3055982,18.7226162 16.831127,18.581332 17.3234166,18.3291588 C17.8072312,18.0813277 18.2340143,17.7506678 18.5926086,17.3284537 C18.9538076,16.9031674 19.2484893,16.4344185 19.4018949,15.878048 C19.4997075,15.5233013 19.5304586,15.1604848 19.5011848,14.7964804 C19.440188,14.0377895 19.181389,13.3523011 18.7682514,12.7299788 C18.454598,12.2575022 18.0847296,11.8372544 17.6884254,11.4417078 C17.6172819,11.3707175 17.544389,11.3016935 17.4726624,11.2313586 C17.4629822,11.221896 17.4554013,11.2100574 17.4403174,11.1910912 C17.572963,11.170855 17.6967838,11.1519298 17.8205657,11.1330454 C18.0947597,11.0913033 18.3689537,11.049725 18.6430699,11.0078191 C18.7871452,10.9858215 18.9310261,10.9619396 19.0754124,10.9427685 C19.092168,10.9405974 19.1159992,10.9595637 19.129567,10.9753348 C19.3856446,11.2729778 19.6478259,11.5652137 19.8940679,11.871623 C20.2144857,12.2703648 20.4841312,12.7064246 20.7036263,13.1760747 C20.8992515,13.594684 21.0422382,14.0314402 21.1117878,14.4927746 C21.1605385,14.8158153 21.1827757,15.1420101 21.1485647,15.4675905 C21.0525404,16.3808378 20.7818841,17.2264948 20.2471806,17.9640893 C19.9146334,18.4227611 19.5060054,18.794221 19.0448946,19.1031701 C18.5040486,19.465536 17.9209441,19.7302851 17.3096933,19.9269524 C17.0472399,20.0114198 16.7809767,20.0827787 16.5158019,20.1573738 C16.4944978,20.1633955 16.4611809,20.1566774 16.4446973,20.1419305 C16.0180697,19.7615405 15.5929582,19.3793481 15.1677301,18.9972786 C15.1603047,18.9906425 15.1543955,18.9821629 15.1407111,18.9663919 Z M17.2556864,9.2680285 C17.0307875,9.30268389 16.8215557,9.33467663 16.6124016,9.3672019 C16.3691919,9.4050115 16.1260212,9.44335363 15.8828504,9.48136805 C15.7966229,9.49488611 15.7105899,9.51143549 15.6238959,9.51962825 C15.595283,9.52233186 15.5573009,9.51192705 15.5363078,9.49238731 C15.2574875,9.23300444 14.9933236,8.95768664 14.7547791,8.65672549 C14.6242327,8.49196903 14.4927533,8.32647522 14.3780685,8.1495525 C13.9870903,7.54648322 13.6826895,6.90142603 13.5536982,6.17612073 C13.4419291,5.54765388 13.4682871,4.92709305 13.6517052,4.31566716 C13.6634458,4.27646479 13.6749143,4.25528649 13.722421,4.24709373 C13.9895395,4.20096848 14.2545198,4.14050588 14.5220271,4.09749388 C14.7428441,4.06201922 14.966188,4.04383128 15.1884822,4.01835179 C15.2442696,4.01192047 15.3001736,4.00696385 15.369451,4 C15.3532396,4.03641683 15.3435594,4.05911078 15.3331017,4.08143606 C15.1479732,4.47558989 15.0043644,4.88535093 14.9415793,5.32132881 C14.8546521,5.92493062 14.9439119,6.49977583 15.2134407,7.04275119 C15.4344909,7.4879869 15.7362093,7.86538652 16.0776203,8.21214521 C16.4337265,8.57373281 16.8198062,8.89730598 17.2067801,9.22005987 C17.2205423,9.23152974 17.2325939,9.24525262 17.2556864,9.2680285 Z M14.0822438,20.5558207 C13.9300822,20.5717965 13.7931602,20.5856423 13.6563159,20.600676 C13.4763967,20.6203796 13.2957,20.6349218 13.1168694,20.6627362 C12.8394487,20.7059121 12.5612116,20.7479819 12.2869787,20.8088132 C11.2842054,21.0311238 10.5027156,21.5631618 10.0779152,22.5862331 C9.92287678,22.9596592 9.80477082,23.3447601 9.73040061,23.7447307 C9.72694062,23.7632874 9.72118694,23.7813524 9.71298406,23.8133042 C9.65583601,23.7692271 9.60273109,23.7331789 9.55487446,23.6905766 C9.35590596,23.51349 9.15627656,23.3370998 8.96127343,23.1552205 C8.81988061,23.023358 8.68653517,22.8819099 8.54708616,22.7477125 C8.50027919,22.7026523 8.49056014,22.6573872 8.50828769,22.5941801 C8.70581778,21.8886193 9.07175965,21.295791 9.58690847,20.8034879 C9.92027207,20.4849123 10.2982267,20.2360981 10.6969024,20.0186212 C11.2628624,19.7098769 11.8683984,19.5309879 12.4884353,19.3972821 C12.5602397,19.3817977 12.6337157,19.3738098 12.7044705,19.3545158 C12.7480896,19.3425954 12.7769357,19.3544339 12.8084643,19.3836001 C13.0002019,19.5607686 13.1931446,19.7365034 13.385543,19.9128526 C13.5995566,20.1089874 13.8134536,20.305204 14.0272728,20.5015436 C14.0423956,20.5153894 14.0565466,20.5303821 14.0822438,20.5558207 Z M18.4088368,16.1780956 C18.3595806,16.1655607 18.3097024,16.1553197 18.2611849,16.1401631 C17.1105654,15.7809105 15.9601013,15.4209614 14.8095596,15.0613401 C14.3673814,14.9231282 13.92497,14.7858175 13.4828696,14.6472369 C13.3132527,14.5940249 13.226442,14.4548299 13.2386881,14.3127264 C13.2567266,14.1039338 13.3270148,13.956505 13.5240784,13.9178762 C13.5756283,13.9077581 13.6346424,13.9164015 13.6859201,13.9321316 C14.060026,14.0470351 14.432849,14.1666904 14.8064495,14.2834373 C15.6865294,14.5583454 16.5668037,14.8326391 17.4470779,15.1069328 C17.7979747,15.2162243 18.1491048,15.3246145 18.5000404,15.4336602 C18.6669749,15.4855614 18.7691805,15.6392986 18.7474487,15.8047924 C18.7183304,16.0267753 18.5852571,16.1715004 18.4088368,16.1780956 Z M11.119829,22.6743381 C11.151241,22.6818754 11.1893397,22.6887573 11.2261555,22.7002272 C12.8279336,23.2000267 14.429595,23.7001539 16.0311787,24.200445 C16.1962861,24.2520184 16.2935544,24.3903942 16.2792868,24.5515868 C16.2600042,24.7699649 16.1464856,24.9153864 15.9752747,24.9301334 C15.9240359,24.9345575 15.8691815,24.9237021 15.8192256,24.9081768 C14.4944794,24.4957941 13.1701609,24.0817728 11.8457647,23.6682021 C11.5700934,23.5820962 11.2940722,23.4971373 11.0185564,23.4105398 C10.8650342,23.3622434 10.7625176,23.2319375 10.7741416,23.0816822 C10.7895755,22.882762 10.8626628,22.7320151 11.0399384,22.6865453 C11.0634974,22.6804826 11.088106,22.6790489 11.119829,22.6743381 Z M21.2478623,6.9104094 C21.2325451,6.9539949 21.2130292,7.04575384 21.1703043,7.12329834 C21.1008713,7.24922111 20.9574181,7.29567407 20.816103,7.25167894 C20.0435936,7.01101653 19.2714341,6.76933002 18.4991191,6.52821701 C17.669967,6.2693257 16.8409704,6.00986089 16.0112741,5.75273103 C15.8695314,5.70881782 15.7654986,5.62594802 15.7494428,5.46631204 C15.7313264,5.28586643 15.814055,5.04450764 16.0500337,5.01763537 C16.0928753,5.01276068 16.1395656,5.02283778 16.1816686,5.0359462 C17.7874898,5.53619631 19.393,6.03751147 20.9984714,6.53907242 C21.1582526,6.58896634 21.2479789,6.70702406 21.2478623,6.9104094 Z M14.3329643,13.3730124 C14.3438108,13.1663909 14.4328373,13.0101959 14.5945624,12.9776296 C14.6556758,12.9652995 14.7257308,12.9716489 14.7860667,12.9900417 C15.2721361,13.1382078 15.756767,13.2914534 16.2419812,13.4427738 C16.8526489,13.6332145 17.4635498,13.8229589 18.0741397,14.0137274 C18.2469446,14.0676767 18.3458068,14.2255513 18.3179325,14.3989102 C18.2809612,14.6290858 18.1440003,14.7691821 17.958172,14.7482496 C17.8625753,14.7374351 17.7695057,14.6991339 17.6762027,14.6700496 C16.882117,14.4225463 16.0882646,14.1742236 15.2943344,13.9262287 C15.0547402,13.8514288 14.8149128,13.7774481 14.5755908,13.701747 C14.4191529,13.6522627 14.3324589,13.5332628 14.3329643,13.3730124 Z M14.0010547,15.2638898 C14.065006,15.2798247 14.1129793,15.2892054 14.159553,15.3037476 C15.1662917,15.6177352 16.1728359,15.9322963 17.1794579,16.2467346 C17.2631196,16.2728695 17.3470533,16.2978165 17.4305983,16.3244839 C17.6146772,16.383226 17.7045979,16.5555198 17.6572467,16.7519003 C17.6198478,16.9069074 17.5456719,17.0258663 17.3856574,17.0532302 C17.335546,17.0617916 17.2792921,17.0550735 17.2300748,17.0400398 C16.8458611,16.9228833 16.462697,16.8019172 16.079222,16.6822619 C15.3671651,16.4601151 14.6552637,16.2374768 13.942857,16.0165999 C13.8111832,15.9757589 13.7107659,15.8974771 13.6886065,15.7520556 C13.6640367,15.5910268 13.7057509,15.4417137 13.8346644,15.3393451 C13.8840761,15.3001427 13.9512153,15.2856416 14.0010547,15.2638898 Z M11.2178165,24.4497835 C11.232123,24.2336585 11.3262034,24.0652152 11.5211677,24.0442827 C11.5626486,24.0397767 11.6077061,24.0447743 11.6477875,24.0572273 C12.7562264,24.401692 13.8643931,24.7472628 14.9722099,25.0939395 C15.149952,25.1495684 15.2368792,25.3257538 15.1917439,25.5146379 C15.1536841,25.6738642 15.0729382,25.7864738 14.9146342,25.8220713 C14.8859436,25.8285026 14.8527821,25.8321075 14.8254522,25.823628 C13.7895175,25.5013247 12.7540104,25.1774647 11.7184256,24.8538096 C11.6267555,24.825135 11.5345411,24.7980989 11.4433375,24.7677447 C11.305599,24.7219471 11.2183219,24.5973352 11.2178165,24.4497835 Z M12.2145329,21.7303311 C12.2447008,21.7377455 12.2847822,21.7452829 12.3235807,21.7574081 C13.4175576,22.098309 14.5114567,22.4395785 15.6052781,22.7810529 C15.7655258,22.8310697 15.8652434,22.971084 15.8528418,23.1269923 C15.8357752,23.3414789 15.7263775,23.488457 15.5580823,23.5086522 C15.5034224,23.5152474 15.4437085,23.5041871 15.3901371,23.4875149 C14.5051199,23.2126477 13.6207247,22.9354865 12.736174,22.6589398 C12.5250373,22.5929471 12.313434,22.5285929 12.1028026,22.4608797 C11.9486195,22.4113135 11.8557831,22.2836703 11.8686511,22.1261234 C11.8854456,21.9203212 11.9652585,21.7857141 12.1372469,21.740531 C12.1587844,21.7348371 12.1816047,21.7345094 12.2145329,21.7303311 Z M19.8373475,8.16792887 C19.7290772,8.13618191 19.623606,8.10701568 19.5190678,8.07436752 C18.4918025,7.75317025 17.4646539,7.43135852 16.4374664,7.10975161 C16.2315001,7.04527456 16.1488104,6.88060003 16.2047144,6.66164844 C16.2401307,6.52298593 16.3119739,6.42332097 16.4465245,6.39235232 C16.5035559,6.37920294 16.5700731,6.38121016 16.6260938,6.39849689 C17.5376634,6.67938577 18.4483001,6.96375657 19.3590144,7.24755388 C19.5537454,7.30822129 19.7480488,7.37024051 19.9428575,7.43058021 C20.0921811,7.47678739 20.1908489,7.62544507 20.1694281,7.79077503 C20.1523226,7.92317008 20.1146904,8.05019887 19.9884982,8.1158229 C19.9423521,8.13978673 19.889947,8.15027347 19.8373475,8.16792887 Z M20.8197302,5.46833565 C20.8013028,5.60126323 20.7651479,5.74627513 20.6126365,5.81951843 C20.5322016,5.85818827 20.4502117,5.8524943 20.3680273,5.82680999 C19.5797342,5.58033072 18.7914022,5.33385145 18.0031479,5.08720832 C17.6952871,4.99086143 17.3874652,4.89435068 17.0797599,4.79751222 C16.885923,4.73655806 16.8022225,4.56872931 16.8547054,4.36223072 C16.890627,4.22078267 16.9588159,4.11157314 17.1002087,4.08121896 C17.1591062,4.06856114 17.2272562,4.07491053 17.2855706,4.09285268 C17.9077456,4.28415369 18.5287155,4.47963302 19.1501519,4.67367861 C19.6249472,4.82196762 20.099898,4.96964217 20.5746933,5.11797214 C20.7301205,5.16655523 20.8205466,5.28825872 20.8197302,5.46833565 Z"/><filter id="fldc-d" width="123.3%" height="115.9%" x="-11.7%" y="-5.7%" filterUnits="objectBoundingBox"><feOffset dy=".5" in="SourceAlpha" result="shadowOffsetOuter1"/><feGaussianBlur in="shadowOffsetOuter1" result="shadowBlurOuter1" stdDeviation=".5"/><feColorMatrix in="shadowBlurOuter1" values="0 0 0 0 0 0 0 0 0 0 0 0 0 0 0 0 0 0 0.204257246 0"/></filter></defs><g fill="none" fill-rule="evenodd"><use fill="#000" filter="url(#fldc-a)" xlink:href="#fldc-b"/><use fill="#C40E09" xlink:href="#fldc-b"/><use fill="url(#fldc-c)" style="mix-blend-mode:soft-light" xlink:href="#fldc-b"/><circle cx="16" cy="15" r="14.5" stroke="#000" stroke-opacity=".097"/><g><use fill="#000" filter="url(#fldc-d)" xlink:href="#fldc-e"/><use fill="#FFF" xlink:href="#fldc-e"/></g></g></svg>

<svg xmlns="http://www.w3.org/2000/svg" xmlns:xlink="http://www.w3.org/1999/xlink" width="32" height="32" viewBox="0 0 32 32"><defs><filter id="a" width="111.7%" height="111.7%" x="-5.8%" y="-4.2%" filterUnits="objectBoundingBox"><feOffset dy=".5" in="SourceAlpha" result="shadowOffsetOuter1"/><feGaussianBlur in="shadowOffsetOuter1" result="shadowBlurOuter1" stdDeviation=".5"/><feComposite in="shadowBlurOuter1" in2="SourceAlpha" operator="out" result="shadowBlurOuter1"/><feColorMatrix in="shadowBlurOuter1" values="0 0 0 0 0 0 0 0 0 0 0 0 0 0 0 0 0 0 0.199473505 0"/></filter><filter id="d" width="123.3%" height="115.9%" x="-11.7%" y="-5.7%" filterUnits="objectBoundingBox"><feOffset dy=".5" in="SourceAlpha" result="shadowOffsetOuter1"/><feGaussianBlur in="shadowOffsetOuter1" result="shadowBlurOuter1" stdDeviation=".5"/><feColorMatrix in="shadowBlurOuter1" values="0 0 0 0 0 0 0 0 0 0 0 0 0 0 0 0 0 0 0.204257246 0"/></filter><linearGradient id="c" x1="50%" x2="50%" y1="0%" y2="100%"><stop offset="0%" stop-color="#FFF" stop-opacity=".5"/><stop offset="100%" stop-opacity=".5"/></linearGradient><circle id="b" cx="16" cy="15" r="15"/><path id="e" d="M22.2 6.14c.09.07.171.13.246.195.198.175.397.35.59.531.153.146.298.302.445.455.012.012.022.04.018.056-.09.348-.226.676-.408.982-.16.268-.344.514-.558.735-.29.3-.615.55-.971.755-.155.09-.314.17-.473.25-.507.257-1.047.401-1.597.503-.375.07-.754.12-1.131.172-.496.068-.993.123-1.488.195-.73.106-1.445.272-2.123.587-.746.347-1.367.854-1.789 1.603-.281.5-.395 1.045-.39 1.623.009 1.107.388 2.064 1.042 2.915.4.52.856.982 1.336 1.418.332.303.671.597 1.002.9.423.39.847.779 1.21 1.234.19.24.378.486.541.747.278.446.499.925.644 1.438.08.28.128.565.15.857a4.04 4.04 0 01-.114 1.292c-.043.173-.045.176-.216.207-.241.045-.482.091-.724.13-.177.027-.355.044-.533.064-.062.008-.125.011-.188.016l-.037-.001c.001-.014 0-.028.004-.04.054-.143.114-.284.165-.428a4.23 4.23 0 00.226-.958 2.932 2.932 0 00-.303-1.672 4.005 4.005 0 00-.694-.946c-.376-.395-.79-.741-1.205-1.086-.693-.577-1.363-1.18-1.975-1.852a10.08 10.08 0 01-1.012-1.302 6.405 6.405 0 01-.768-1.606 4.713 4.713 0 01-.025-2.718c.146-.514.343-.997.647-1.43.402-.573.921-1 1.516-1.33.6-.335 1.24-.555 1.899-.72.53-.134 1.067-.234 1.608-.3.61-.074 1.22-.136 1.83-.205.498-.056.993-.125 1.474-.277a3.03 3.03 0 001.177-.672c.291-.272.507-.598.662-.972.143-.345.213-.709.264-1.078.011-.082.017-.166.027-.267zm-7.06 12.826c.219-.043.427-.08.634-.125.532-.118 1.057-.26 1.55-.512a4.1 4.1 0 001.269-1c.36-.426.655-.895.809-1.451a3.11 3.11 0 00.1-1.082 4.316 4.316 0 00-.734-2.066 8.374 8.374 0 00-1.08-1.288c-.07-.071-.144-.14-.215-.21-.01-.01-.018-.022-.033-.04l.38-.059.823-.125c.144-.022.288-.046.432-.065.017-.002.041.017.055.032.256.298.518.59.764.897.32.398.59.834.81 1.304.195.419.338.855.408 1.317.049.323.07.649.037.975-.096.913-.367 1.758-.902 2.496-.332.459-.741.83-1.202 1.14a6.87 6.87 0 01-1.735.823c-.263.084-.529.156-.794.23a.087.087 0 01-.071-.015c-.427-.38-.852-.763-1.277-1.145-.008-.006-.014-.015-.027-.03zm2.116-9.698l-.644.1-.73.113c-.085.014-.171.03-.258.039a.124.124 0 01-.088-.028 7.558 7.558 0 01-.781-.835c-.13-.165-.262-.33-.377-.507-.39-.604-.695-1.249-.824-1.974a3.968 3.968 0 01.098-1.86c.011-.04.023-.06.07-.069.268-.046.533-.106.8-.15.22-.035.444-.053.666-.079L15.37 4c-.016.036-.025.06-.036.081a4.384 4.384 0 00-.391 1.24 2.868 2.868 0 00.271 1.722c.221.445.523.822.865 1.17.356.36.742.684 1.129 1.007.014.012.026.025.049.048zm-3.174 11.288l-.426.045c-.18.02-.36.034-.54.062-.277.043-.555.085-.829.146-1.003.222-1.784.754-2.21 1.777a5.76 5.76 0 00-.347 1.159c-.003.018-.009.036-.017.068-.057-.044-.11-.08-.158-.122-.2-.178-.399-.354-.594-.536-.141-.132-.274-.273-.414-.407-.047-.045-.056-.09-.039-.154a3.884 3.884 0 011.079-1.79 5.145 5.145 0 011.11-.785c.566-.31 1.171-.488 1.791-.622.072-.015.146-.023.216-.042.044-.012.073 0 .104.029l.578.529.641.589a.85.85 0 01.055.054zm4.327-4.378c-.05-.012-.1-.023-.148-.038l-3.451-1.079c-.443-.138-.885-.275-1.327-.414-.17-.053-.257-.192-.244-.334.018-.21.088-.356.285-.395a.346.346 0 01.162.014c.374.115.747.235 1.12.351l2.641.824 1.053.327a.34.34 0 01.247.37c-.029.223-.162.368-.338.374zm-7.29 6.496c.032.008.07.015.107.026l4.805 1.5c.165.052.263.19.248.352-.019.218-.133.363-.304.378a.419.419 0 01-.156-.022c-1.325-.412-2.649-.826-3.973-1.24-.276-.086-.552-.17-.827-.257-.154-.049-.256-.18-.245-.33.016-.198.089-.349.266-.394.023-.007.048-.008.08-.013zM21.249 6.91c-.015.044-.035.136-.078.213-.07.126-.213.173-.354.129L18.5 6.528c-.829-.259-1.658-.518-2.488-.775-.141-.044-.246-.127-.262-.287-.018-.18.065-.421.301-.448a.332.332 0 01.132.018l4.816 1.503c.16.05.25.168.25.371zm-6.915 6.463c.01-.207.1-.363.262-.395a.406.406 0 01.191.012c.486.148.97.301 1.456.453l1.832.57a.34.34 0 01.244.386c-.037.23-.174.37-.36.35-.095-.012-.188-.05-.282-.079l-2.382-.744-.718-.224a.326.326 0 01-.243-.329zm-.332 1.89c.064.017.112.026.159.04l3.02.944c.083.026.167.05.25.077.185.06.275.232.227.428-.037.155-.111.274-.271.301a.349.349 0 01-.156-.013c-.384-.117-.767-.238-1.15-.358-.713-.222-1.425-.445-2.137-.665-.132-.041-.232-.12-.254-.265-.025-.161.017-.31.146-.413.05-.039.116-.053.166-.075zm-2.783 9.187c.014-.216.108-.385.303-.406a.32.32 0 01.127.013c1.108.345 2.216.69 3.324 1.037.178.056.265.232.22.42-.038.16-.12.272-.277.308a.18.18 0 01-.09.002l-3.107-.97c-.091-.029-.183-.056-.275-.086a.329.329 0 01-.225-.318zm.997-2.72c.03.008.07.015.109.027l3.281 1.024c.16.05.26.19.248.346-.017.214-.127.361-.295.382a.416.416 0 01-.168-.021c-.885-.275-1.77-.553-2.654-.83-.211-.065-.423-.13-.633-.197-.154-.05-.247-.177-.234-.335.016-.206.096-.34.268-.385.022-.006.045-.006.078-.01zm7.622-13.562c-.108-.032-.213-.061-.318-.094-1.027-.32-2.054-.643-3.082-.964-.205-.065-.288-.23-.232-.448.035-.139.107-.239.242-.27a.36.36 0 01.18.006c.91.281 1.821.566 2.732.85.195.06.389.122.584.183a.33.33 0 01.226.36c-.017.132-.054.26-.18.325-.047.024-.1.034-.152.052zm.983-2.7c-.019.133-.055.278-.207.352a.322.322 0 01-.245.007l-2.365-.74-.923-.29c-.194-.06-.278-.228-.225-.435.036-.141.104-.25.245-.28a.382.382 0 01.186.01c.622.192 1.243.388 1.864.582l1.425.444c.155.049.246.17.245.35z"/></defs><g fill="none" fill-rule="evenodd"><use fill="#000" filter="url(#a)" xlink:href="#b"/><use fill="#C40E09" xlink:href="#b"/><use fill="url(#c)" style="mix-blend-mode:soft-light" xlink:href="#b"/><circle cx="16" cy="15" r="14.5" stroke="#000" stroke-opacity=".097"/><use fill="#000" filter="url(#d)" xlink:href="#e"/><use fill="#FFF" xlink:href="#e"/></g></svg>
